svgs/regular/trash-list.svg

<svg xmlns="http://www.w3.org/2000/svg" viewBox="0 0 640 512"><!--! Font Awesome Pro 6.1.1 by @fontawesome - https://fontawesome.com License - https://fontawesome.com/license (Commercial License) Copyright 2022 Fonticons, Inc. --><path d="M285.5 24.94L322.2 80H392C405.3 80 416 90.75 416 104C416 117.3 405.3 128 392 128H380.4L356.4 452.7C353.9 486.1 326.1 512 292.6 512H123.4C89.92 512 62.09 486.1 59.61 452.7L35.56 128H24C10.75 128 0 117.3 0 104C0 90.75 10.75 80 24 80H93.82L130.5 24.94C140.9 9.357 158.4 0 177.1 0H238.9C257.6 0 275.1 9.358 285.5 24.94V24.94zM151.5 80H264.5L245.5 51.56C244 49.34 241.5 48 238.9 48H177.1C174.5 48 171.1 49.34 170.5 51.56L151.5 80zM107.5 449.2C108.1 457.5 115.1 464 123.4 464H292.6C300.9 464 307.9 457.5 308.5 449.2L332.3 128H83.69L107.5 449.2zM616 128C629.3 128 640 138.7 640 152C640 165.3 629.3 176 616 176H472C458.7 176 448 165.3 448 152C448 138.7 458.7 128 472 128H616zM584 256C597.3 256 608 266.7 608 280C608 293.3 597.3 304 584 304H472C458.7 304 448 293.3 448 280C448 266.7 458.7 256 472 256H584zM448 408C448 394.7 458.7 384 472 384H520C533.3 384 544 394.7 544 408C544 421.3 533.3 432 520 432H472C458.7 432 448 421.3 448 408z"/></svg>

<svg xmlns="http://www.w3.org/2000/svg" viewBox="0 0 640 512"><!--! Font Awesome Pro 6.4.2 by @fontawesome - https://fontawesome.com License - https://fontawesome.com/license (Commercial License) Copyright 2023 Fonticons, Inc. --><path d="M170.5 51.6L151.5 80h113l-19-28.4c-1.5-2.2-4-3.6-6.7-3.6H177.1c-2.7 0-5.2 1.3-6.7 3.6zm115-26.6L322.2 80h13.7H384h8c13.3 0 24 10.7 24 24s-10.7 24-24 24H380.4L356.4 452.7c-2.5 33.4-30.3 59.3-63.8 59.3H123.4c-33.5 0-61.3-25.9-63.8-59.3L35.6 128H24c-13.3 0-24-10.7-24-24S10.7 80 24 80h8H80.1 93.8l36.7-55.1C140.9 9.4 158.4 0 177.1 0h61.7c18.7 0 36.2 9.4 46.6 24.9zM83.7 128l23.8 321.2c.6 8.4 7.6 14.8 16 14.8H292.6c8.4 0 15.3-6.5 16-14.8L332.3 128H83.7zM472 128H616c13.3 0 24 10.7 24 24s-10.7 24-24 24H472c-13.3 0-24-10.7-24-24s10.7-24 24-24zm0 128H584c13.3 0 24 10.7 24 24s-10.7 24-24 24H472c-13.3 0-24-10.7-24-24s10.7-24 24-24zM448 408c0-13.3 10.7-24 24-24h48c13.3 0 24 10.7 24 24s-10.7 24-24 24H472c-13.3 0-24-10.7-24-24z"/></svg>
